src/img/icon-tg.svg

<svg width="20" height="18" viewBox="0 0 20 18" fill="none" xmlns="http://www.w3.org/2000/svg">
<path fill-rule="evenodd" clip-rule="evenodd" d="M18.6066 2.02196L2.22131 8.84076L4.3019 9.49991C4.81255 9.55168 5.06757 9.52453 5.23937 9.47352C5.42172 9.41937 5.56644 9.32527 5.88647 9.10184L6.60204 10.1268C6.59238 10.1335 6.58269 10.1403 6.57299 10.1471C6.28958 10.3451 5.98976 10.5546 5.59521 10.6718C5.18326 10.7941 4.72215 10.8035 4.10558 10.7361L4.04387 10.7294L1.15987 9.81572L1.15417 9.81379C1.13876 9.80858 1.12334 9.80338 1.10795 9.79818C0.933223 9.73919 0.760976 9.68103 0.63106 9.62558C0.561131 9.59574 0.467722 9.55212 0.381084 9.49037C0.310126 9.4398 0.129318 9.29803 0.0766134 9.03793C0.0155465 8.73655 0.166863 8.51602 0.259 8.41651C0.348301 8.32006 0.452999 8.25459 0.524847 8.21364C0.675073 8.12801 0.882473 8.03995 1.11775 7.9461L18.159 0.854274L18.1756 0.848464C18.435 0.757166 18.6921 0.682794 18.9232 0.668806C19.1654 0.654147 19.5139 0.702561 19.7475 1.01764C19.9365 1.27258 19.944 1.57715 19.9394 1.75329C19.9341 1.95586 19.9008 2.19407 19.8647 2.43405L19.8644 2.43664L17.851 15.4745C17.797 15.9187 17.7104 16.3076 17.5581 16.614C17.3943 16.9435 17.1309 17.2184 16.7362 17.3154C16.383 17.4023 16.0346 17.3163 15.7525 17.2105C15.4606 17.101 15.1439 16.9323 14.8183 16.7467L14.7962 16.7341L9.68116 13.2373C9.27462 12.9997 8.72985 12.6363 8.44731 12.1472C8.28944 11.8739 8.19596 11.5311 8.28487 11.153C8.37045 10.7891 8.6039 10.4838 8.91232 10.2278L15.4359 4.68782L16.245 5.64061L9.71254 11.1881C9.53053 11.3388 9.50454 11.427 9.50168 11.4391C9.50031 11.445 9.50014 11.4485 9.50148 11.4556C9.50324 11.4648 9.50925 11.4865 9.52971 11.522C9.63437 11.7031 9.91878 11.9297 10.3293 12.1682L10.3491 12.1798L15.4594 15.6733C15.7678 15.8485 16.0041 15.9698 16.1914 16.0401C16.3124 16.0854 16.3819 16.0972 16.4151 16.1002C16.4214 16.0904 16.4293 16.0766 16.4388 16.0576C16.4973 15.9398 16.5632 15.7146 16.6112 15.3149L16.6124 15.3044L18.6286 2.24845C18.6287 2.24793 18.6288 2.2474 18.6288 2.24688C18.6424 2.15621 18.6541 2.07535 18.6636 2.00246C18.6453 2.00859 18.6263 2.01508 18.6066 2.02196Z" fill="black"/>
</svg>

<svg width="20" height="18" viewBox="0 0 20 18" fill="none" xmlns="http://www.w3.org/2000/svg"><path fill-rule="evenodd" clip-rule="evenodd" d="M18.607 2.022L2.22 8.841 4.3 9.5c.512.052.767.025.938-.026.183-.055.327-.149.647-.372l.716 1.025-.029.02c-.283.198-.583.408-.978.525-.412.122-.873.131-1.49.064l-.061-.007-2.884-.913-.006-.002-.046-.016a7.165 7.165 0 01-.477-.172 1.334 1.334 0 01-.25-.136.74.74 0 01-.304-.452.705.705 0 01.182-.621c.09-.097.194-.162.266-.203a4.98 4.98 0 01.593-.268L18.159.854l.017-.006c.259-.09.516-.165.747-.18.242-.014.59.035.825.35.188.255.196.56.191.735a5.825 5.825 0 01-.074.681v.003L17.85 15.475c-.054.444-.14.833-.293 1.139-.164.33-.427.604-.822.701-.353.087-.701.001-.984-.105a6.815 6.815 0 01-.934-.463l-.022-.013-5.115-3.497c-.406-.237-.951-.6-1.234-1.09a1.345 1.345 0 01-.162-.994c.085-.364.319-.67.627-.925l6.524-5.54.809.953-6.532 5.547c-.182.15-.208.239-.211.251a.034.034 0 000 .017c.001.009.007.03.028.066.104.181.389.408.8.646l.02.012 5.11 3.493c.308.175.544.297.731.367.121.045.19.057.224.06a.463.463 0 00.024-.042c.058-.118.124-.343.172-.743l.001-.01L18.63 2.247v-.001l.035-.245a4.715 4.715 0 00-.057.02z" fill="#000"/></svg>
